X:67
T:Vanha Merimies Muistelee  (The Old Sailor Reminisces)
M:3/4
L:1/4
Q:1/4=160
R:waltz
K:G
"D7" D/2B,/2C/2 | "G" D2 D | G2 A | B (G2 | G) z A/2A/2 |
A G>B, | D2 E | "D7" (F3 | F) z D/2D/2 | !
c B A | E F>D | "G" G3 | D2 ^D |
"C" ECE | "D7" A2 B | (A3 | A) z/2 D/2B,/2C/2 | !
"G" D D D | G G>A | B (G2 | G) z G/2G/2 |
"C" c c c | G2 A | "G" (B3 | B) z/2 B/2B/2B/2 | !
"Am" A E F | A G E | "G" D B, D | G B G |
"D7" A3 | E2 F | "G" (G3 | G) z/2 ||
